X: 12
T: The Kesh
R: jig
M: 6/8
L: 1/8
K: Gmaj
|:~G3 GAB|~A3 ABd|edd gdd|edB dBA|
~G3 GAB|~A3 ABd|edd gdB|1 AGF G2D:|2 AGF G2A|
|:~B3 dBd|ege dBG|~B3 dBG|ABA AGA|
BAB dBd|ege dBd|~g3 aga|bgf g3:|


Tune 55	Setting 25965

